dist/svg/static/languages-large.svg

<svg xmlns="http://www.w3.org/2000/svg" width="48" height="48" viewBox="0 0 48 48"><g fill="none" stroke="currentColor" stroke-miterlimit="10"><path d="M32.5 23.949C32.5 35.823 28.695 45.5 24 45.5s-8.5-9.626-8.5-21.5S19.306 2.5 24 2.5s8.5 9.575 8.5 21.449zM5.293 34.5h37.413m-40.2-10h42.988m-40.736-10h38.484"/><path d="M45.5 23.948A21.5 21.5 0 1 1 24 2.5a21.543 21.543 0 0 1 21.5 21.448z"/></g></svg>

<?xml version="1.0" encoding="UTF-8" standalone="no"?>
<svg width="48px" height="48px" viewBox="0 0 48 48" version="1.1" xmlns="http://www.w3.org/2000/svg" xmlns:xlink="http://www.w3.org/1999/xlink">
    <!-- Generator: sketchtool 46.2 (44496) - http://www.bohemiancoding.com/sketch -->
    <title>languages-large</title>
    <desc>Created with sketchtool.</desc>
    <defs></defs>
    <g id="icons-published" stroke="none" stroke-width="1" fill="none" fill-rule="evenodd">
        <g id="briefing" transform="translate(-288.000000, -922.000000)"></g>
        <g id="languages-large" stroke="#000000">
            <path d="M32.5,23.9 C32.5,35.8 28.7,45.5 24,45.5 C19.3,45.5 15.5,35.9 15.5,24 C15.5,12.1 19.3,2.5 24,2.5 C28.7,2.5 32.5,12.1 32.5,23.9 Z M5.3,34.5 L42.7,34.5 L5.3,34.5 Z M2.5,24.5 L45.5,24.5 L2.5,24.5 Z M4.8,14.5 L43.3,14.5 L4.8,14.5 Z" id="Shape"></path>
            <path d="M45.5,23.9 C45.5,35.8 35.9,45.4 24.1,45.5 C12.2,45.5 2.6,35.9 2.5,24.1 C2.5,12.2 12.1,2.6 23.9,2.5 C23.9,2.5 23.9,2.5 24,2.5 C35.8,2.5 45.4,12.1 45.5,23.9 Z" id="Shape"></path>
        </g>
    </g>
</svg>
